X: 27004
T: Miss Forbes' Farewell To Banff
R: reel
M: 4/4
K: Gmajor
|:G/A/|Bd c/B/A/G/ Bd e/f/g/e/|d>e d/B/A/G/ BA AG/A/|
Bd c/B/A/G/ Bd e/f/g/e/|d>e d/B/A/G/ BG G:|
d|g>a g/f/e/d/ e/d/e/f/ gb|d>e d/B/A/G/ BA Ad|
g/f/g/a/ g/f/e/d/ e/d/e/f/ gf/e/|d>e d/B/A/G/ BG Gd|
g>a g/f/e/d/ e/d/e/f/ gb|d>e d/B/A/G/ BA Ad|
Bd c/B/A/G/ Bd e/f/g/e/|d>e d/B/A/G/ BG G||

